static/images/pieces/xiangqi/wikim/red_cannon.svg

<?xml version="1.0" encoding="UTF-8" standalone="no"?>
<svg
   width="100"
   height="100"
   version="1.1"
   id="svg1058"
   sodipodi:docname="red_cannon.svg"
   viewBox="-6 -6 112 112"
   inkscape:version="1.2.2 (b0a8486541, 2022-12-01)"
   xmlns:inkscape="http://www.inkscape.org/namespaces/inkscape"
   xmlns:sodipodi="http://sodipodi.sourceforge.net/DTD/sodipodi-0.dtd"
   xmlns="http://www.w3.org/2000/svg"
   xmlns:svg="http://www.w3.org/2000/svg"
   xmlns:rdf="http://www.w3.org/1999/02/22-rdf-syntax-ns#"
   xmlns:cc="http://creativecommons.org/ns#"
   xmlns:dc="http://purl.org/dc/elements/1.1/">
  <defs
     id="defs1062" />
  <sodipodi:namedview
     id="namedview1060"
     pagecolor="#ffffff"
     bordercolor="#666666"
     borderopacity="1.0"
     inkscape:showpageshadow="2"
     inkscape:pageopacity="0.0"
     inkscape:pagecheckerboard="0"
     inkscape:deskcolor="#d1d1d1"
     showgrid="false"
     inkscape:zoom="2.36"
     inkscape:cx="50.211864"
     inkscape:cy="50"
     inkscape:window-width="1920"
     inkscape:window-height="1022"
     inkscape:window-x="0"
     inkscape:window-y="0"
     inkscape:window-maximized="1"
     inkscape:current-layer="svg1058" />
  <title
     id="title1050">炮</title>
  <!-- 此字型為全字庫正楷體，中華民國國家發展委員會，CNS11643中文標準交換碼全字庫網站，https://www.cns11643.gov.tw/。 -->
  <circle
     r="48.5"
     cx="50"
     cy="50"
     stroke-width="3"
     stroke="#000000"
     fill="#ffddaa"
     id="circle1052" />
  <circle
     r="43.5"
     cx="50"
     cy="50"
     stroke-width="3"
     stroke="#cc0000"
     fill="none"
     id="circle1054" />
  <path
     transform="translate(15,14)"
     fill="#cc0000"
     d="M 37.7,6.7 C 37.4,7 37,8.3 36.8,10.1 36,15.3 33.1,23 29.7,28.7 c -0.8,1.5 -1.4,2.7 -1.3,3.3 0.1,0.4 -0.1,1.1 -0.3,1.4 -0.4,0.4 -0.4,0.9 -0.1,2.5 0.3,1.5 0.4,4.4 0.2,10.3 -0.2,7.2 -0.2,8.6 0.3,10.3 1.1,3.6 4.3,6.1 9.5,7.3 10.9,2.6 21.5,1.1 26.9,-3.7 2,-1.7 2.2,-2.6 1.1,-4.2 -1,-1.5 -1.7,-3.7 -2.3,-6.8 -0.4,-2.1 -1,-3.3 -1.7,-3.3 -1,0 -1.5,1.2 -2,4.2 -0.9,6 -2.3,7.6 -7.2,8.8 -2.6,0.7 -3.6,0.8 -8.5,0.6 -7.4,-0.3 -10,-1 -11.3,-3.5 -0.7,-1.4 -0.8,-8.2 -0.1,-8.6 0.2,-0.2 2,-0.6 4,-0.9 4.5,-0.8 5.1,-1 5.6,-1.7 0.3,-0.4 0.2,-0.7 -0.3,-1.3 -0.6,-0.6 -0.6,-0.7 0.3,-3.4 0.5,-1.5 1.3,-3.3 1.8,-4 0.5,-0.6 0.8,-1.4 0.8,-1.8 0,-0.8 -2.1,-2.2 -4.2,-2.7 -1.5,-0.4 -1.8,-0.4 -3.7,0.5 -2.3,1 -6.5,1.6 -6.9,1 -0.1,-0.2 0.4,-0.9 1.1,-1.5 0.8,-0.6 2.1,-2 3.1,-3.1 1.6,-2 1.6,-2 2.9,-1.7 1.1,0.3 1.8,0.2 4.3,-0.7 3.9,-1.4 7.6,-2.3 9.1,-2.1 L 52,24 51.9,27.4 c -0.1,5.4 -1.6,13 -2.8,14.3 -0.5,0.5 -0.6,0.5 -2.5,-0.2 -1.8,-0.6 -2.2,-0.6 -2.6,-0.2 -0.3,0.2 -0.6,0.5 -0.6,0.7 0,0.1 0.7,1.2 1.7,2.4 0.9,1.1 1.9,2.6 2.3,3.3 1.3,2 3.6,1.6 5.7,-1.1 1.4,-1.9 2.7,-5.9 3.4,-11 0.7,-4.6 1.8,-10.2 2.3,-11.7 0.5,-1.4 0,-2.4 -2.2,-3.9 -2.2,-1.5 -2.7,-1.6 -5.7,-0.6 -3.1,1 -11.1,3 -12.1,3 -0.8,0 -0.8,-0.5 -0.1,-1.1 0.3,-0.3 1.4,-2 2.3,-3.9 0.9,-2 2.2,-4.3 2.8,-5.2 l 1.1,-1.7 -0.7,-1 C 43.4,8.4 40,6.3 39,6.3 c -0.4,0 -1,0.2 -1.3,0.4 m -23.4,2 c -0.5,0.7 -0.5,1 0.2,3 0.6,2 0.7,2.9 0.7,12.1 0,8.6 -0.1,10.6 -0.8,14.7 -1.3,8.3 -3.9,14 -8.7,19.7 -1.9,2.3 -2.2,2.8 -1.8,3.2 0.6,0.8 1.4,0.7 3.3,-0.5 4,-2.6 8.9,-8.6 10,-12.3 0.2,-0.8 0.5,-1.7 0.7,-1.8 0.1,-0.2 1.2,1.1 2.4,2.9 1.1,1.7 2.5,3.4 3,3.7 0.7,0.5 0.9,0.5 1.9,0 1.5,-0.8 2.1,-2.8 1.2,-4.6 -0.7,-1.4 -3.4,-3.2 -6.2,-4.1 -1.3,-0.4 -1.4,-0.5 -1.2,-1.5 0.7,-3.8 0.9,-5.3 1.1,-8.5 0.2,-2.7 0.4,-3.8 0.9,-4.1 1.4,-1.1 7.1,-5.3 8.1,-5.9 1.7,-1.1 1.7,-2.3 0.1,-4 -1.6,-1.6 -4,-2.5 -4.8,-1.8 -0.3,0.2 -0.8,1.3 -1.1,2.4 -0.7,2.2 -1.8,4.6 -2.3,4.6 -0.4,0 0,-8.5 0.5,-11.8 0.3,-1.5 0.5,-3 0.5,-3.3 C 22,10 18.8,8.4 16.7,8.2 15,8 14.7,8.1 14.3,8.7 M 5,27.7 c -0.7,0.7 -0.6,1.4 0.9,4.4 1.8,3.6 2.9,5.1 4.3,5.7 1.4,0.6 2.6,-0.2 3.1,-2.1 0.6,-1.8 0.2,-3.6 -1.1,-5.1 C 10.3,28.5 6,26.7 5,27.7 m 32.8,9 c 0,0.8 -0.2,1.9 -0.9,4.9 -0.2,0.8 -1.1,1.3 -3,1.5 l -1.2,0.1 0.1,-1.9 c 0.3,-4 0.8,-4.8 3.4,-5.4 1.4,-0.3 1.6,-0.2 1.6,0.8"
     id="path1056" />
  <metadata
     id="metadata14435">
    <rdf:RDF>
      <cc:Work
         rdf:about="">
        <dc:title>炮</dc:title>
      </cc:Work>
    </rdf:RDF>
  </metadata>
</svg>

<?xml version="1.0" encoding="UTF-8"?>
<svg width="100" height="100"
	xmlns="http://www.w3.org/2000/svg">
	<title>炮</title>
	<!-- 此字型為全字庫正楷體，中華民國國家發展委員會，CNS11643中文標準交換碼全字庫網站，https://www.cns11643.gov.tw/。 -->
	<circle r="48.5" cx="50" cy="50" stroke-width="3" stroke="#000" fill="#fda"/>
	<circle r="43.5" cx="50" cy="50" stroke-width="3" stroke="#c00" fill="none"/>
	<path transform="translate(15,14)" fill="#c00" d="M37.7 6.7 C37.4 7.0,37.0 8.3,36.8 10.1 C36.0 15.3,33.1 23.0,29.7 28.7 C28.9 30.2,28.3 31.4,28.4 32.0 C28.5 32.4,28.3 33.1,28.1 33.4 C27.7 33.8,27.7 34.3,28.0 35.9 C28.3 37.4,28.4 40.3,28.2 46.2 C28.0 53.4,28.0 54.8,28.5 56.5 C29.6 60.1,32.8 62.6,38.0 63.8 C48.9 66.4,59.5 64.9,64.9 60.1 C66.9 58.4,67.1 57.5,66.0 55.9 C65.0 54.4,64.3 52.2,63.7 49.1 C63.3 47.0,62.7 45.8,62.0 45.8 C61.0 45.8,60.5 47.0,60.0 50.0 C59.1 56.0,57.7 57.6,52.8 58.8 C50.2 59.5,49.2 59.6,44.3 59.4 C36.9 59.1,34.3 58.4,33.0 55.9 C32.3 54.5,32.2 47.7,32.9 47.3 C33.1 47.1,34.9 46.7,36.9 46.4 C41.4 45.6,42.0 45.4,42.5 44.7 C42.8 44.3,42.7 44.0,42.2 43.4 C41.6 42.8,41.6 42.7,42.5 40.0 C43.0 38.5,43.8 36.7,44.3 36.0 C44.8 35.4,45.1 34.6,45.1 34.2 C45.1 33.4,43.0 32.0,40.9 31.5 C39.4 31.1,39.1 31.1,37.2 32.0 C34.9 33.0,30.7 33.6,30.3 33.0 C30.2 32.8,30.7 32.1,31.4 31.5 C32.2 30.9,33.5 29.5,34.5 28.4 C36.1 26.4,36.1 26.4,37.4 26.7 C38.5 27.0,39.2 26.9,41.7 26.0 C45.6 24.6,49.3 23.7,50.8 23.9 L52.0 24.0 51.9 27.4 C51.8 32.8,50.3 40.4,49.1 41.7 C48.6 42.2,48.5 42.2,46.6 41.5 C44.8 40.9,44.4 40.9,44.0 41.3 C43.7 41.5,43.4 41.8,43.4 42.0 C43.4 42.1,44.1 43.2,45.1 44.4 C46.0 45.5,47.0 47.0,47.4 47.7 C48.7 49.7,51.0 49.3,53.1 46.6 C54.5 44.7,55.8 40.7,56.5 35.6 C57.2 31.0,58.3 25.4,58.8 23.9 C59.3 22.5,58.8 21.5,56.6 20.0 C54.4 18.5,53.9 18.4,50.9 19.4 C47.8 20.4,39.8 22.4,38.8 22.4 C38.0 22.4,38.0 21.9,38.7 21.3 C39.0 21.0,40.1 19.3,41.0 17.4 C41.9 15.4,43.2 13.1,43.8 12.2 L44.9 10.5 44.2 9.5 C43.4 8.4,40.0 6.3,39.0 6.3 C38.6 6.3,38.0 6.5,37.7 6.7 M14.3 8.7 C13.8 9.4,13.8 9.7,14.5 11.7 C15.1 13.7,15.2 14.6,15.2 23.8 C15.2 32.4,15.1 34.4,14.4 38.5 C13.1 46.8,10.5 52.5,5.7 58.2 C3.8 60.5,3.5 61.0,3.9 61.4 C4.5 62.2,5.3 62.1,7.2 60.9 C11.2 58.3,16.1 52.3,17.2 48.6 C17.4 47.8,17.7 46.9,17.9 46.8 C18.0 46.6,19.1 47.9,20.3 49.7 C21.4 51.4,22.8 53.1,23.3 53.4 C24.0 53.9,24.2 53.9,25.2 53.4 C26.7 52.6,27.3 50.6,26.4 48.8 C25.7 47.4,23.0 45.6,20.2 44.7 C18.9 44.3,18.8 44.2,19.0 43.2 C19.7 39.4,19.9 37.9,20.1 34.7 C20.3 32.0,20.5 30.9,21.0 30.6 C22.4 29.5,28.1 25.3,29.1 24.7 C30.8 23.6,30.8 22.4,29.2 20.7 C27.6 19.1,25.2 18.2,24.4 18.9 C24.1 19.1,23.6 20.2,23.3 21.3 C22.6 23.5,21.5 25.9,21.0 25.9 C20.6 25.9,21.0 17.4,21.5 14.1 C21.8 12.6,22.0 11.1,22.0 10.8 C22.0 10.0,18.8 8.4,16.7 8.2 C15.0 8.0,14.7 8.1,14.3 8.7 M5.0 27.7 C4.3 28.4,4.4 29.1,5.9 32.1 C7.7 35.7,8.8 37.2,10.2 37.8 C11.6 38.4,12.8 37.6,13.3 35.7 C13.9 33.9,13.5 32.1,12.2 30.6 C10.3 28.5,6.0 26.7,5.0 27.7 M37.8 36.7 C37.8 37.5,37.6 38.6,36.9 41.6 C36.7 42.4,35.8 42.9,33.9 43.1 L32.7 43.2 32.8 41.3 C33.1 37.3,33.6 36.5,36.2 35.9 C37.6 35.6,37.8 35.7,37.8 36.7 "/>
</svg>
